X: 24
T:London
% Nottingham Music Database
S:Mick Peat
M:2/4
L:1/4
K:A
"A"e3/4a/4 e/2d/2|"D"B3/4A/4 "A" B/2c/2|"Bm"d3/4c/4 "A" d/2e/2|\
"D"f/2g/2 a/2f/2|"A"e/2f/2 e/2c/2|"D"f/2g/2 a/2f/2|"A"e/2c/2 "E"B/2c/2|"A"A/2A/4A/4 A:|
"A"c/2e/2 A/2e/2|"E"B/2e/2 ^d/2e/2|"A"c/2e/2 A/2e/2|"E"B/2E/2 E|\
"A"c/2e/2 A/2e/2|"B"B/2^d/2 f/2a/2|"A"g/2f/2 "B7"e/2^d/2|"E"e/2e/4e/4 e:|
"A"a/2a/2 a/2g/2|"D"f/2f/2 f/2e/2|"A"c/2e/2 A/2c/2|"E"B/2E/2 E|\
"A"a/2a/2 a/2g/2|"F#m"f/2f/2 f/2c/2|
"Bm"B/2A/2 "E"B/2c/2|"A"A/2A/4A/4 A|"A"C/2E/2 A/2c/2|"D"F/2A/2 d/2f/2|\
"A"e/2c/2 e/2c/2|
"E"B/2E/2 E|"A"C/2E/2 A/2c/2|"D"F/2A/2 d/2f/2|"A"e/2c/2 "E"B/2c/2|\
"A"A/2A/4A/4 A|<end>
<start>
